X:84
T:Cheshire Waltz. JGi.084
O:Tealby,Lincolnshire
M:3/8
L:1/16
Q:3/8=60
S:Joshua Gibbons MS,1823,Tealby,Lincs.
R:waltz
Z:VMP/R.Greig, 2009
K:C
G2|e2efed|c2cdcB|A2B2c2|G4e2|f2e2d2|a2g2B2|d2c2c2|c4:|
|:f2|egfedc|B2d2f2|egecGE|C2E2G2|F2A2e2|f2d2c2|B2dcBA|G4G2|
e2efed|c2cdcB|A2B2c2|G4e2|f2e2d2|a2g2B2|d2c2c2|c4:|
|:G2|E2G2c2|c2B2A2|B2d2g2|f4e2|f2e2f2|A2d2c2|B2c2A2|G4:|
|:F2|E2G2c2|c2B2A2|B2d2g2|f4e2|f2e2f2|A2d2c2|cBAGAB|c6||
